assets/assets/svgs/whatsapp_icon.svg

<svg width="24" height="24" viewBox="0 0 24 24" fill="none" xmlns="http://www.w3.org/2000/svg">
<path d="M21.75 6.68625C21.739 6.26561 21.7065 5.84581 21.6525 5.4285C21.5797 5.063 21.4584 4.70886 21.2918 4.3755C21.1175 4.01388 20.8834 3.68425 20.5995 3.4005C20.3129 3.1199 19.9839 2.88628 19.6245 2.70825C19.2907 2.54488 18.9366 2.42684 18.5715 2.35725C18.1582 2.29534 17.7413 2.25952 17.3235 2.25H6.68625C6.26561 2.26096 5.84581 2.2935 5.4285 2.3475C5.063 2.4203 4.70886 2.54163 4.3755 2.70825C4.01388 2.88252 3.68425 3.11655 3.4005 3.4005C3.1199 3.68706 2.88628 4.01611 2.70825 4.3755C2.54488 4.7093 2.42684 5.06344 2.35725 5.4285C2.29534 5.84184 2.25952 6.25866 2.25 6.6765C2.25 6.86175 2.25 7.125 2.25 7.203V16.797C2.25 16.9043 2.25 17.1383 2.25 17.3138C2.26096 17.7344 2.2935 18.1542 2.3475 18.5715C2.4203 18.937 2.54163 19.2911 2.70825 19.6245C2.88252 19.9861 3.11655 20.3157 3.4005 20.5995C3.68706 20.8801 4.01611 21.1137 4.3755 21.2918C4.7093 21.4551 5.06344 21.5732 5.4285 21.6427C5.84184 21.7047 6.25866 21.7405 6.6765 21.75H17.3138C17.7344 21.739 18.1542 21.7065 18.5715 21.6525C18.937 21.5797 19.2911 21.4584 19.6245 21.2918C19.9861 21.1175 20.3157 20.8834 20.5995 20.5995C20.8801 20.3129 21.1137 19.9839 21.2918 19.6245C21.4551 19.2907 21.5732 18.9366 21.6427 18.5715C21.7047 18.1582 21.7405 17.7413 21.75 17.3235C21.75 17.1382 21.75 16.9043 21.75 16.797V7.203C21.75 7.125 21.75 6.86175 21.75 6.68625ZM12.2242 18.825C11.0533 18.8192 9.90291 18.5174 8.88 17.9475L5.175 18.9225L6.15 15.2955C5.52124 14.239 5.18474 13.0344 5.175 11.805C5.17888 10.4234 5.59152 9.07375 6.36095 7.92616C7.13038 6.77858 8.22219 5.88434 9.49886 5.35607C10.7755 4.8278 12.18 4.68913 13.5353 4.95752C14.8907 5.2259 16.1363 5.88935 17.1153 6.86429C18.0943 7.83923 18.7629 9.08207 19.0369 10.4363C19.3109 11.7905 19.1781 13.1955 18.6551 14.4744C18.1322 15.7532 17.2425 16.8487 16.0981 17.6229C14.9537 18.3971 13.6059 18.8154 12.2242 18.825ZM12.2242 6.02325C11.1906 6.03508 10.1785 6.32061 9.29102 6.85077C8.40356 7.38093 7.67244 8.13679 7.17209 9.04138C6.67174 9.94598 6.42003 10.967 6.44258 12.0005C6.46514 13.034 6.76116 14.0431 7.3005 14.925L7.437 15.1492L6.852 17.2845L9.075 16.68L9.2895 16.8068C10.1763 17.3291 11.1853 17.6083 12.2145 17.616C13.766 17.616 15.254 16.9997 16.3511 15.9026C17.4482 14.8055 18.0645 13.3175 18.0645 11.766C18.0645 10.2145 17.4482 8.72651 16.3511 7.62943C15.254 6.53234 13.766 5.916 12.2145 5.916L12.2242 6.02325ZM15.6367 14.3303C15.509 14.5433 15.3381 14.7271 15.1348 14.8698C14.9316 15.0126 14.7007 15.1111 14.457 15.159C14.0929 15.2256 13.718 15.2021 13.365 15.0908C13.0329 14.9869 12.7073 14.8632 12.39 14.7203C11.1846 14.1154 10.1567 13.2084 9.4065 12.0878C8.99884 11.5685 8.75148 10.9417 8.69475 10.284C8.68894 10.0108 8.74063 9.73942 8.84644 9.48747C8.95226 9.23552 9.10985 9.00863 9.309 8.8215C9.36766 8.75499 9.43962 8.70154 9.52024 8.66459C9.60085 8.62764 9.68833 8.60802 9.777 8.607H10.05C10.1573 8.607 10.3035 8.607 10.44 8.90925C10.5765 9.2115 10.9373 10.1183 10.986 10.206C11.01 10.2528 11.0225 10.3046 11.0225 10.3571C11.0225 10.4097 11.01 10.4615 10.986 10.5083C10.9429 10.6142 10.8837 10.7129 10.8105 10.8008C10.7227 10.908 10.6253 11.0348 10.5473 11.1128C10.4693 11.1908 10.3718 11.2883 10.4693 11.4638C10.7345 11.9115 11.0629 12.3186 11.4443 12.6727C11.8595 13.0397 12.3343 13.3332 12.8483 13.5405C13.0238 13.6283 13.131 13.6185 13.2285 13.5405C13.326 13.4625 13.6673 13.0335 13.7843 12.858C13.9013 12.6825 14.0182 12.7118 14.1742 12.7703C14.3302 12.8288 15.198 13.248 15.3735 13.3358C15.549 13.4235 15.6563 13.4625 15.705 13.5405C15.7473 13.7957 15.7238 14.0574 15.6367 14.301V14.3303Z" fill="#2D9CDB"/>
</svg>

<svg xmlns="http://www.w3.org/2000/svg" width="24" height="24" fill="none" xmlns:v="https://vecta.io/nano"><path d="M21.75 6.686a12.31 12.31 0 0 0-.098-1.258c-.073-.365-.194-.72-.361-1.053a3.57 3.57 0 0 0-.692-.975c-.287-.281-.616-.514-.975-.692a4.17 4.17 0 0 0-1.053-.351c-.413-.062-.83-.098-1.248-.107H6.686c-.421.011-.84.043-1.258.098-.365.073-.72.194-1.053.361a3.57 3.57 0 0 0-.975.692 3.81 3.81 0 0 0-.692.975c-.163.334-.281.688-.351 1.053-.062.413-.098.83-.107 1.248v.527 9.594.517c.011.421.043.84.098 1.258.073.366.194.72.361 1.053a3.57 3.57 0 0 0 .692.975c.287.281.616.514.975.692a4.17 4.17 0 0 0 1.053.351c.413.062.83.098 1.248.107h10.637a12.31 12.31 0 0 0 1.258-.098c.366-.073.72-.194 1.053-.361a3.57 3.57 0 0 0 .975-.692c.281-.287.514-.616.692-.975a4.17 4.17 0 0 0 .351-1.053c.062-.413.098-.83.107-1.248v-.526-9.594-.517zm-9.526 12.139a6.94 6.94 0 0 1-3.344-.877l-3.705.975.975-3.627a6.93 6.93 0 0 1-.975-3.491 7 7 0 0 1 4.324-6.449 7 7 0 0 1 7.616 1.508 7 7 0 0 1 1.54 7.61 7 7 0 0 1-6.431 4.351zm0-12.802a5.85 5.85 0 0 0-5.052 3.018 5.85 5.85 0 0 0 .128 5.884l.136.224-.585 2.135 2.223-.605.215.127a5.85 5.85 0 0 0 2.925.809 5.85 5.85 0 0 0 5.85-5.85 5.85 5.85 0 0 0-5.85-5.85l.01.107zm3.412 8.307c-.128.213-.299.397-.502.54s-.434.241-.678.289a2.27 2.27 0 0 1-1.092-.068 8.7 8.7 0 0 1-.975-.37 7.8 7.8 0 0 1-2.984-2.633c-.408-.519-.655-1.146-.712-1.804a1.95 1.95 0 0 1 .614-1.463c.059-.067.131-.12.211-.157s.168-.057.257-.058h.273c.107 0 .253 0 .39.302l.546 1.297a.33.33 0 0 1 0 .302 1.11 1.11 0 0 1-.176.293l-.263.312c-.078.078-.175.175-.078.351.265.448.594.855.975 1.209a4.87 4.87 0 0 0 1.404.868c.175.088.283.078.38 0s.439-.507.556-.682.234-.146.39-.088 1.024.478 1.199.566.283.127.332.205a1.52 1.52 0 0 1-.068.761v.029z" fill="#2d9cdb"/></svg>
